src/main/resources/META-INF/pluginIcon.svg

<?xml version="1.0" encoding="UTF-8" standalone="no"?>
<!-- Uploaded to: SVG Repo, www.svgrepo.com, Generator: SVG Repo Mixer Tools -->

<svg
   width="40"
   height="40"
   xml:space="preserve"
   aria-hidden="true"
   viewBox="0 0 0.7 0.7"
   version="1.1"
   id="svg13"
   xmlns="http://www.w3.org/2000/svg"
   xmlns:svg="http://www.w3.org/2000/svg"><defs
   id="defs13" />
    
    
    
    
    
    
    
    
    
    <g
   id="g15"
   transform="matrix(0.05142857,0,0,0.05148011,-0.01,-0.0100451)"><g
     id="g17"
     transform="matrix(1.0045272,0,0,1,-0.00322279,-6.9375127e-4)"><path
       fill="#f6d2a2"
       d="M 2.245,8.798 C 2.365,9.128 2.64,8.863 2.752,8.711 2.858,8.564 2.925,8.635 2.877,8.436 2.846,8.303 2.818,8.172 2.772,8.045 A 0.95,0.95 0 0 0 2.214,8.411 C 2.144,8.506 2.047,8.775 2.245,8.799 m 7.724,1.949 c 0.298,0.075 0.903,0.403 0.603,0.762 -0.252,0.458 -0.675,-0.186 -1.02,-0.178 0.076,-0.237 0.19,-0.469 0.417,-0.584 M 10.046,6.135 C 10.136,6.475 9.764,6.427 9.586,6.372 9.417,6.317 9.403,6.415 9.33,6.225 9.28,6.098 9.227,5.975 9.193,5.844 a 0.93,0.93 0 0 1 0.66,-0.042 c 0.107,0.036 0.34,0.194 0.193,0.333"
       id="path1" /><path
       fill="#69d7e2"
       d="M 7.914,2.346 C 8.906,1.562 7.534,0.268 6.778,1.296 5.961,0.943 5.047,1.135 4.122,1.445 3.239,1.824 2.431,2.285 1.999,3.032 0.824,2.709 0.415,4.568 1.68,4.577 1.763,5.97 2.537,7.159 2.896,8.484 c 0.32,1.19 0.516,2.864 1.476,3.707 0.819,0.723 2.074,0.657 3.035,0.374 1.228,-0.362 2.602,-1.163 2.81,-2.578 C 10.419,8.639 9.81,7.247 9.347,6.022 8.879,4.784 8.613,3.457 7.915,2.346"
       id="path2" /><path
       d="M 10.07,5.909 C 10.012656,5.8470684 9.9418281,5.7991654 9.863,5.769 9.6754354,5.7118621 9.4749582,5.7129081 9.288,5.772 9.2072665,5.5411473 9.1299249,5.3091223 9.056,5.076 L 8.977,4.823 C 8.724,4.025 8.605,3.678 8.424,3.254 8.2914812,2.9414819 8.1364053,2.6390172 7.96,2.349 8.183,2.163 8.297,1.942 8.296,1.705 8.2908637,1.4784435 8.193316,1.2638385 8.026,1.111 7.8605334,0.95444107 7.6397125,0.86992494 7.412,0.876 7.173,0.888 6.949,1.013 6.77,1.249 6.5054855,1.1387577 6.2233653,1.0767793 5.937,1.066 5.414,1.044 4.85,1.158 4.113,1.405 L 4.123,1.437 4.11,1.406 C 3.343,1.735 2.8,2.057 2.393,2.463 2.229,2.625 2.093,2.7996667 1.985,2.987 1.706,2.915 1.454,2.96 1.253,3.107 1.067,3.241 0.936,3.453 0.891,3.687 0.846,3.921 0.892,4.157 1.026,4.327 1.159,4.497 1.373,4.594 1.65,4.605 1.674,4.959 1.742,5.32 1.856,5.705 1.966,6.081 2.076,6.374 2.343,7.03 2.541,7.52 2.629,7.745 2.723,8.022 2.5094801,8.0811502 2.3216499,8.209536 2.189,8.387 2.1396891,8.4574464 2.1093797,8.5394194 2.101,8.625 2.088,8.729 2.13,8.805 2.226,8.826 2.288,8.978 2.395,9.021 2.519,8.965 2.6252873,8.9103981 2.7158279,8.8294968 2.782,8.73 2.7975148,8.7077589 2.8152831,8.6873086 2.835,8.669 L 2.857,8.651 c 0,0 0.017,-0.013 0.022,-0.019 C 2.88833,8.62667 2.895333,8.619667 2.9,8.611 c 0.042,0.155 0.08,0.318 0.165,0.69 0.096,0.42 0.15,0.65 0.223,0.901 0.262,0.938 0.692,1.69 1.18,2.118 0.060494,0.05338 0.6596403,0.358343 1.1432522,0.422467 C 6.3507821,12.840524 7.0985541,12.68032 7.419,12.586 c 0.686,-0.202 1.31,-0.508 1.797,-0.9 0.1293333,-0.106667 0.2483333,-0.217333 0.357,-0.332 0.092,0.005 0.182,0.05 0.364,0.165 0.008,0.004 0.008,0.004 0.013,0.01 0.009,0.004 0.01,0.007 0.014,0.01 0.01,0.007 0.02,0.01 0.03,0.018 0.143,0.092 0.231,0.13 0.321,0.14 0.118,0.01 0.21,-0.046 0.284,-0.178 0.145,-0.178 0.1,-0.364 -0.083,-0.532 -0.144599,-0.122879 -0.312669,-0.215079 -0.494,-0.271 0.11,-0.22 0.19,-0.466 0.23,-0.727 C 10.358,9.265 10.246,8.499 9.947,7.567 9.84,7.237 9.737,6.952 9.53,6.412 L 9.525,6.396 C 9.543,6.39733 9.561667,6.40167 9.581,6.409 9.6922397,6.446642 9.8108407,6.457268 9.927,6.44 10.06,6.41 10.122,6.31 10.086,6.15 10.148,6.072 10.138,5.986 10.069,5.909 M 7.415,0.95 C 7.619,0.939 7.825,1.02 7.982,1.168 8.136255,1.3074896 8.2266085,1.5040989 8.232,1.712 8.232,1.924 8.13,2.127 7.923,2.296 7.8216204,2.1379796 7.712477,1.9854459 7.596,1.839 7.662,1.728 7.674,1.612 7.557,1.494 7.441,1.375 7.31,1.401 7.195,1.486 7.0812796,1.4060384 6.9608266,1.3361088 6.835,1.277 6.999,1.072 7.2,0.961 7.415,0.95 M 1.073,4.29 C 0.953,4.136 0.909,3.921 0.953,3.706 0.997,3.491 1.114,3.293 1.29,3.169 1.4829954,3.0360059 1.7246052,2.9943364 1.951,3.055 1.863638,3.2111967 1.7948069,3.3777342 1.746,3.551 1.556,3.518 1.384,3.558 1.346,3.768 1.309,3.992 1.459,4.074 1.648,4.111 1.6364747,4.2557364 1.6354721,4.4011185 1.645,4.546 1.388,4.532 1.194,4.443 1.073,4.29 M 2.837,8.586 C 2.834,8.586 2.817,8.6 2.818,8.603 2.80933,8.609 2.801333,8.616333 2.794,8.625 2.770157,8.645026 2.749577,8.668642 2.733,8.695 2.6727437,8.7850556 2.5909302,8.858619 2.495,8.909 2.404,8.949 2.337,8.926 2.291,8.812 2.35,8.767 2.373,8.742 2.386,8.694 L 2.323,8.672 C 2.313,8.704 2.297,8.72 2.247,8.759 2.245,8.7583333 2.243,8.76 2.241,8.764 2.1823333,8.752 2.1573333,8.7086667 2.166,8.634 2.1766494,8.561083 2.2032848,8.4914213 2.244,8.43 2.3670605,8.2614537 2.544869,8.1409115 2.747,8.089 c 0.026,0.08 0.054,0.16 0.075,0.24 l 0.005,0.027 c 0.012,0.046 0.018,0.066 0.022,0.09 0.02,0.097 0.017,0.112 -0.012,0.14 m 7.634,2.46 c 0.15,0.135 0.19,0.273 0.097,0.408 -0.015,-0.016 -0.029,-0.037 -0.051,-0.065 0,-0.002 -0.002,-0.004 -0.006,-0.006 -0.05032,-0.07814 -0.118098,-0.143528 -0.198,-0.191 l -0.03,0.06 c 0.061,0.03 0.099,0.07 0.178,0.17 0,0.002 0.0017,0.0037 0.005,0.005 l 0.063,0.08 c -0.059,0.098 -0.127,0.135 -0.214,0.125 -0.075,-0.007 -0.157,-0.048 -0.293,-0.13 l -0.027,-0.02 -0.014,-0.01 -0.013,-0.01 c -0.16,-0.1 -0.252,-0.152 -0.34,-0.17 0.142,-0.161333 0.262,-0.333 0.36,-0.515 0.164,0.056 0.358,0.156 0.483,0.268 M 10.186,9.979 C 10.092,10.631 9.739,11.187 9.175,11.642 8.693,12.029 8.074,12.33 7.398,12.528 6.234,12.872 5.107,12.791 4.393,12.163 3.916,11.745 3.604,11.115 3.346,10.19 3.2653523,9.8915999 3.1910025,9.5915333 3.123,9.29 3.013,8.817 2.981,8.68 2.926,8.47 2.8830583,8.3135862 2.8353696,8.1585145 2.783,8.005 2.6662155,7.6674027 2.5388189,7.3335702 2.401,7.004 2.133,6.347 2.025,6.057 1.915,5.685 1.7758114,5.2351347 1.7050209,4.7669058 1.705,4.296 1.712,3.566 1.965,2.99 2.439,2.511 2.838,2.113 3.373,1.797 4.133,1.47 4.863,1.225 5.418,1.114 5.934,1.135 c 0.618,0.026 1.145,0.258 1.605,0.731 0.326,0.4 0.588,0.86 0.823,1.413 0.18,0.42 0.3,0.767 0.551,1.561 l 0.08,0.253 c 0.126,0.392 0.218,0.666 0.32,0.936 l 0.153,0.4 c 0.208,0.541 0.31,0.822 0.416,1.152 0.298,0.93 0.41,1.685 0.304,2.398 M 10.033,6.104 c -0.0033,-0.00133 -0.0067,-0.00133 -0.01,0 C 9.96,6.103 9.937,6.096 9.911,6.08 L 9.873,6.136 c 0.04,0.03 0.074,0.036 0.144,0.038 0.024,0.12 -0.016,0.18 -0.11,0.201 C 9.8016887,6.391489 9.6939506,6.38222 9.593,6.348 9.56368,6.33858 9.533552,6.331881 9.503,6.328 H 9.493 C 9.425,6.153 9.411,6.108 9.375,6.016 L 9.311,5.844 c 0.1720507,-0.056446 0.3575282,-0.057146 0.53,-0.002 0.067588,0.026221 0.1286659,0.066826 0.179,0.119 0.048,0.045 0.057,0.095 0.013,0.143"
       id="path3" /><g
       transform="matrix(0.03148,-0.01056,0.0102,0.03258,1.96,2.911)"
       id="g6"><path
   fill="#ffffff"
   d="m 2.291,38.749 c 9.164,35.66 66.241,26.496 64.05,-9.264 C 63.75,-13.348 -6.475,-5.08 2.29,38.749"
   id="path4" />
        <path
   d="M 67.337,29.385 C 66.739,19.025 62.157,10.957 54.587,5.877 47.813,1.295 38.848,-0.498 29.983,0.597 21.118,1.794 12.949,5.778 7.57,12.054 1.594,19.026 -0.697,28.19 1.395,38.749 l 0.896,-0.2 -0.896,0.2 C 10.758,75.405 69.528,66.54 67.337,29.385 M 3.187,38.55 C 1.195,28.49 3.387,19.923 8.965,13.448 14.045,7.571 21.715,3.687 30.182,2.591 c 8.467,-1.096 16.934,0.598 23.31,4.98 7.071,4.782 11.355,12.253 11.952,22.114 2.092,34.764 -53.391,43.132 -62.256,8.865"
   id="path5" />
        <ellipse
   cx="18.030001"
   cy="32.872002"
   rx="9.6619997"
   ry="10.459"
   id="ellipse5" />
        <ellipse
   cx="22.412001"
   cy="35.262001"
   fill="#ffffff"
   rx="2.2909999"
   ry="2.6889999"
   id="ellipse6" /></g><g
       transform="matrix(0.03148,-0.01056,0.0102,0.03258,4.475,1.928)"
       id="g8"><path
   fill="#ffffff"
   d="M 1.195,35.96 C 8.268,76.9 75.206,66.042 65.544,24.803 56.878,-12.252 -1.196,-1.992 1.195,35.96"
   id="path6" />
        <path
   d="M 66.44,24.604 C 57.575,-13.547 -2.19,-3.088 0.2,36.059 v 0.1 C 3.486,55.483 20.72,65.345 39.745,62.157 48.41,60.663 56.18,56.48 61.26,50.304 66.838,43.43 68.83,34.565 66.44,24.604 M 59.767,49.108 C 54.985,54.886 47.714,58.87 39.446,60.265 21.416,63.253 5.279,53.989 2.092,35.86 -0.1,-0.996 56.28,-10.858 64.647,25.002 c 2.192,9.463 0.399,17.731 -4.88,24.106"
   id="path7" />
        <ellipse
   cx="17.631001"
   cy="34.167"
   rx="9.4630003"
   ry="10.459"
   id="ellipse7" />
        <ellipse
   cx="22.014"
   cy="36.556999"
   fill="#ffffff"
   rx="2.191"
   ry="2.6889999"
   id="ellipse8" /></g></g><g
     id="g14"
     transform="matrix(0.11598983,0,0,0.11546709,1.4599025,1.5002111)"><path
       d="m 27.43,27.43 h 73.14 v 73.14 H 27.43 Z m 0,0"
       id="path23" /><path
       fill="#ffffff"
       d="M 34.293,86.855 H 61.719 V 91.43 H 34.293 Z M 32.23,52.187 v -0.085 a 15.496,15.496 0 0 1 4.633,-11.098 15.503,15.503 0 0 1 11.18,-4.434 16.615,16.615 0 0 1 11.86,4.133 l -4.18,5.047 a 11.13,11.13 0 0 0 -7.887,-3.082 c -4.875,0 -8.668,4.266 -8.668,9.387 v 0.082 c 0,5.523 3.793,9.57 9.145,9.57 2.218,0.066 4.402,-0.57 6.238,-1.816 v -4.34 h -6.68 v -5.727 h 13.082 v 13.09 a 19.589,19.589 0 0 1 -12.887,4.793 c -9.375,0 -15.836,-6.598 -15.836,-15.52 z m 31.528,0 v -0.085 a 15.581,15.581 0 0 1 4.758,-11.16 15.604,15.604 0 0 1 11.32,-4.372 c 9.3,0 15.98,6.938 15.98,15.508 v 0.086 A 15.584,15.584 0 0 1 79.75,67.766 C 70.437,67.707 63.758,60.77 63.758,52.187 Z m 25.12,0 v -0.085 a 9.142,9.142 0 0 0 -2.57,-6.645 9.148,9.148 0 0 0 -6.558,-2.789 9.038,9.038 0 0 0 -6.516,2.746 9.022,9.022 0 0 0 -2.53,6.602 v 0.086 a 9.175,9.175 0 0 0 2.562,6.68 9.155,9.155 0 0 0 6.582,2.804 9.027,9.027 0 0 0 6.523,-2.77 9.001,9.001 0 0 0 2.508,-6.629 z m 0,0"
       id="path24" /></g><g
     id="g16"
     transform="matrix(1.0045272,0,0,1,-0.00322279,-6.9375127e-4)"><path
       fill="#ffffff"
       d="M 5.734,4.661 C 5.789,4.825 5.877,4.997 5.904,5.181 5.886,5.281 5.808,5.318 5.746,5.374 5.6394592,5.3922287 5.5313494,5.3517353 5.463,5.268 5.376,5.078 5.349,4.88 5.296,4.678 5.372103,4.651102 5.4522847,4.637569 5.533,4.638 c 0.1,0 0.2,0.02 0.201,0.023 M 4.835,4.954 C 4.855,5.328 5.25,5.838 5.441,5.264 5.355,5.079 5.325,4.864 5.274,4.67 5.272,4.652 4.831,4.93 4.835,4.954"
       id="path9" /><path
       fill="#231f20"
       d="M 5.82,4.801 C 5.783,4.706 5.767,4.668 5.752,4.619 L 5.745,4.596 5.721,4.597 5.286,4.603 H 5.309 5.274 L 5.247,4.605 5.223,4.619 4.831,4.874 4.816,4.883 4.815,4.901 a 0.8,0.8 0 0 0 0.22,0.58 C 5.191,5.628 5.355,5.577 5.457,5.314 A 0.338,0.35 0.083 0 0 5.747,5.41 L 5.757,5.407 5.764,5.4 C 5.775,5.39 5.787,5.382 5.805,5.365 q 0.004,0 0.006,-0.005 C 5.891,5.297 5.921,5.258 5.933,5.186 L 5.935,5.182 5.933,5.175 A 1,1 0 0 0 5.887,4.983 3,3 0 0 0 5.819,4.801 M 5.28,4.849 A 2,2 0 0 0 5.404,5.266 C 5.317,5.511 5.201,5.55 5.077,5.43 A 0.73,0.73 0 0 1 4.88,4.922 L 5.243,4.686 Z M 5.87,5.182 C 5.86,5.229 5.838,5.257 5.77,5.309 Q 5.767,5.308 5.765,5.314 L 5.729,5.344 A 0.27,0.27 0 0 1 5.489,5.252 2,2 0 0 1 5.393,4.955 C 5.386,4.921 5.379,4.899 5.367,4.838 A 2,2 0 0 0 5.325,4.673 L 5.701,4.665 c 0.013,0.042 0.028,0.08 0.06,0.162 0.035,0.086 0.052,0.13 0.068,0.182 q 0.03,0.092 0.04,0.173"
       id="path10" /><path
       fill="#f6d2a2"
       d="M 4.607,4.22 C 4.367,4.326 4.261,4.695 4.464,4.892 4.734,5.153 5.004,4.679 5.249,4.632 5.524,4.547 5.839,4.765 5.977,4.445 6.133,4.092 5.705,3.941 5.396,3.916 Z"
       id="path11" /><path
       fill="#231f20"
       d="M 5.883,4.032 A 1,1 0 0 0 5.403,3.885 L 5.396,3.884 5.39,3.886 4.597,4.187 C 4.327,4.307 4.23,4.709 4.444,4.917 4.528,4.996 4.615,5.02 4.714,4.994 A 0.7,0.7 0 0 0 4.961,4.851 L 4.994,4.825 C 5.134,4.717 5.192,4.68 5.257,4.669 L 5.26,4.668 C 5.336,4.643 5.406,4.644 5.54,4.653 5.689,4.664 5.735,4.667 5.803,4.651 A 0.3,0.3 0 0 0 6.011,4.463 C 6.089,4.283 6.036,4.135 5.883,4.033 m 0.066,0.4 C 5.911,4.521 5.859,4.564 5.786,4.585 5.728,4.601 5.686,4.597 5.544,4.587 a 0.7,0.7 0 0 0 -0.3,0.015 C 5.162,4.618 5.101,4.657 4.954,4.771 Q 4.932,4.789 4.92,4.796 C 4.716,4.954 4.604,4.985 4.484,4.867 4.305,4.694 4.388,4.351 4.617,4.249 L 5.4,3.95 c 0.17,0.015 0.335,0.064 0.445,0.138 0.13,0.085 0.17,0.201 0.104,0.345"
       id="path12" /><path
       d="M 5.426,3.791 C 5.213,3.454 4.415,3.782 4.572,4.217 4.715,4.532 5.635,4.127 5.426,3.791"
       id="path13" /></g></g></svg>

<?xml version="1.0" encoding="UTF-8" standalone="no"?>
<!-- Uploaded to: SVG Repo, www.svgrepo.com, Generator: SVG Repo Mixer Tools -->

<svg width="800"
     height="800"
     xmlns="http://www.w3.org/2000/svg" xml:space="preserve" aria-hidden="true" viewBox="0 0 14 14"><path fill="#f6d2a2" d="M2.245 8.798c.12.33.395.065.507-.087.106-.147.173-.076.125-.275-.031-.133-.059-.264-.105-.391a.95.95 0 0 0-.558.366c-.07.095-.167.364.031.388m7.724 1.949c.298.075.903.403.603.762-.252.458-.675-.186-1.02-.178.076-.237.19-.469.417-.584m.077-4.613c.09.34-.282.292-.46.237-.169-.055-.183.043-.256-.147-.05-.127-.103-.25-.137-.381a.93.93 0 0 1 .66-.042c.107.036.34.194.193.333"/>
    <path fill="#69d7e2"
          d="M7.914 2.346c.992-.784-.38-2.078-1.136-1.05-.817-.353-1.731-.161-2.656.149-.883.379-1.691.84-2.123 1.587C.824 2.709.415 4.568 1.68 4.577c.083 1.393.857 2.582 1.216 3.907.32 1.19.516 2.864 1.476 3.707.819.723 2.074.657 3.035.374 1.228-.362 2.602-1.163 2.81-2.578.202-1.348-.407-2.74-.87-3.965-.468-1.238-.734-2.565-1.432-3.676"/>
    <path d="M10.07 5.909a.55.55 0 0 0-.207-.14.97.97 0 0 0-.575.003 25 25 0 0 1-.232-.696l-.079-.253c-.253-.798-.372-1.145-.553-1.569a7 7 0 0 0-.464-.905c.223-.186.337-.407.336-.644a.83.83 0 0 0-.27-.594.86.86 0 0 0-.614-.235c-.239.012-.463.137-.642.373a2.4 2.4 0 0 0-.833-.183c-.523-.022-1.087.092-1.824.339l.01.032-.013-.031c-.767.329-1.31.651-1.717 1.057q-.246.243-.408.524c-.279-.072-.531-.027-.732.12-.186.134-.317.346-.362.58s.001.47.135.64c.133.17.347.267.624.278.024.354.092.715.206 1.1.11.376.22.669.487 1.325.198.49.286.715.38.992a1 1 0 0 0-.534.365.5.5 0 0 0-.088.238c-.013.104.029.18.125.201.062.152.169.195.293.139a.7.7 0 0 0 .263-.235.37.384.083 0 1 .053-.061l.022-.018s.017-.013.022-.019q.014-.008.021-.021c.042.155.08.318.165.69.096.42.15.65.223.901.262.938.692 1.69 1.18 2.118.153.135 2.421.422 2.951.266.686-.202 1.31-.508 1.797-.9q.194-.16.357-.332c.092.005.182.05.364.165.008.004.008.004.013.01.009.004.01.007.014.01.01.007.02.01.03.018.143.092.231.13.321.14.118.01.21-.046.284-.178.145-.178.1-.364-.083-.532a1.4 1.4 0 0 0-.494-.271c.11-.22.19-.466.23-.727.106-.724-.006-1.49-.305-2.422-.107-.33-.21-.615-.417-1.155l-.005-.016q.027.002.056.013a.74.74 0 0 0 .346.031c.133-.03.195-.13.159-.29.062-.078.052-.164-.017-.241M7.415.95c.204-.011.41.07.567.218a.76.76 0 0 1 .25.544c0 .212-.102.415-.309.584a5.36 5.548.083 0 0-.327-.457c.066-.111.078-.227-.039-.345-.116-.119-.247-.093-.362-.008a2.4 2.4 0 0 0-.36-.209c.164-.205.365-.316.58-.327M1.073 4.29c-.12-.154-.164-.369-.12-.584s.161-.413.337-.537a.8.8 0 0 1 .661-.114 2.167 2.243.083 0 0-.205.496c-.19-.033-.362.007-.4.217-.037.224.113.306.302.343a3 3 0 0 0-.003.435c-.257-.014-.451-.103-.572-.256m1.764 4.296c-.003 0-.02.014-.019.017q-.013.009-.024.022a.3.3 0 0 0-.061.07.65.65 0 0 1-.238.214c-.091.04-.158.017-.204-.097.059-.045.082-.07.095-.118l-.063-.022c-.01.032-.026.048-.076.087q-.003-.001-.006.005-.088-.018-.075-.13a.5.5 0 0 1 .078-.204.9.9 0 0 1 .503-.341c.026.08.054.16.075.24l.005.027c.012.046.018.066.022.09.02.097.017.112-.012.14m7.634 2.46c.15.135.19.273.097.408-.015-.016-.029-.037-.051-.065q0-.003-.006-.006a.6.6 0 0 0-.198-.191l-.03.06c.061.03.099.07.178.17q0 .003.005.005l.063.08c-.059.098-.127.135-.214.125-.075-.007-.157-.048-.293-.13l-.027-.02-.014-.01-.013-.01c-.16-.1-.252-.152-.34-.17q.213-.242.36-.515c.164.056.358.156.483.268m-.285-1.066c-.094.652-.447 1.208-1.011 1.663-.482.387-1.101.688-1.777.886-1.164.344-2.291.263-3.005-.365-.477-.418-.789-1.048-1.047-1.973a22 22 0 0 1-.223-.9c-.11-.473-.142-.61-.197-.82a8 8 0 0 0-.143-.465 17 17 0 0 0-.382-1.001c-.268-.657-.376-.947-.486-1.319a4.7 4.7 0 0 1-.21-1.389c.007-.73.26-1.306.734-1.785.399-.398.934-.714 1.694-1.041.73-.245 1.285-.356 1.801-.335.618.026 1.145.258 1.605.731.326.4.588.86.823 1.413.18.42.3.767.551 1.561l.08.253c.126.392.218.666.32.936l.153.4c.208.541.31.822.416 1.152.298.93.41 1.685.304 2.398m-.153-3.875q-.005-.002-.01 0c-.063-.001-.086-.008-.112-.024l-.038.056c.04.03.074.036.144.038.024.12-.016.18-.11.201a.66.66 0 0 1-.314-.027.5.5 0 0 0-.09-.02h-.01c-.068-.175-.082-.22-.118-.312l-.064-.172a.86.86 0 0 1 .53-.002.5.5 0 0 1 .179.119c.048.045.057.095.013.143"/>
    <g transform="matrix(.03148 -.01056 .0102 .03258 1.96 2.911)"><path fill="#fff" d="M2.291 38.749c9.164 35.66 66.241 26.496 64.05-9.264C63.75-13.348-6.475-5.08 2.29 38.749"/>
        <path d="M67.337 29.385c-.598-10.36-5.18-18.428-12.75-23.508C47.813 1.295 38.848-.498 29.983.597 21.118 1.794 12.949 5.778 7.57 12.054 1.594 19.026-.697 28.19 1.395 38.749l.896-.2-.896.2c9.363 36.656 68.133 27.791 65.942-9.364M3.187 38.55c-1.992-10.06.2-18.627 5.778-25.102 5.08-5.877 12.75-9.761 21.217-10.857s16.934.598 23.31 4.98c7.071 4.782 11.355 12.253 11.952 22.114 2.092 34.764-53.391 43.132-62.256 8.865"/>
        <ellipse cx="18.03" cy="32.872" rx="9.662" ry="10.459"/>
        <ellipse cx="22.412" cy="35.262" fill="#fff" rx="2.291" ry="2.689"/></g>
    <g transform="matrix(.03148 -.01056 .0102 .03258 4.475 1.928)"><path fill="#fff" d="M1.195 35.96C8.268 76.9 75.206 66.042 65.544 24.803 56.878-12.252-1.196-1.992 1.195 35.96"/>
        <path d="M66.44 24.604C57.575-13.547-2.19-3.088.2 36.059v.1c3.286 19.324 20.52 29.186 39.545 25.998C48.41 60.663 56.18 56.48 61.26 50.304c5.578-6.874 7.57-15.739 5.18-25.7m-6.673 24.504c-4.782 5.778-12.053 9.762-20.321 11.157-18.03 2.988-34.167-6.276-37.354-24.405C-.1-.996 56.28-10.858 64.647 25.002c2.192 9.463.399 17.731-4.88 24.106"/>
        <ellipse cx="17.631" cy="34.167" rx="9.463" ry="10.459"/>
        <ellipse cx="22.014" cy="36.557" fill="#fff" rx="2.191" ry="2.689"/></g>
    <path d="M13.125 4.579H4.612v8.546h8.513z"/>
    <path fill="#fff"
          d="M7.558 8.296h-.635V6.21h.635v-.56H5.676v.558h.634v2.087h-.634v.558h1.882zM8.809 5.65V7.8q0 .14-.06.248c-.06.108-.095.129-.168.17s-.155.059-.247.059h-.457v.577h.536q.29 0 .522-.13c.232-.13.276-.208.363-.362s.132-.326.132-.519V5.65zm-3.133 6.41h3.405v-.641H5.676Zm.058-7.399c.055.164.143.336.17.52-.018.1-.096.137-.158.193a.3.3 0 0 1-.283-.106c-.087-.19-.114-.388-.167-.59a.7.7 0 0 1 .237-.04c.1 0 .2.02.201.023m-.899.293c.02.374.415.884.606.31-.086-.185-.116-.4-.167-.594-.002-.018-.443.26-.439.284"/>
    <path fill="#231f20"
          d="M5.82 4.801c-.037-.095-.053-.133-.068-.182l-.007-.023-.024.001-.435.006h.023-.035l-.027.002-.024.014-.392.255-.015.009-.001.018a.8.8 0 0 0 .22.58c.156.147.32.096.422-.167a.338.35.083 0 0 .29.096l.01-.003.007-.007c.011-.01.023-.018.041-.035q.004 0 .006-.005c.08-.063.11-.102.122-.174l.002-.004-.002-.007a1 1 0 0 0-.046-.192 3 3 0 0 0-.068-.182m-.539.048a2 2 0 0 0 .124.417c-.087.245-.203.284-.327.164a.73.73 0 0 1-.197-.508l.363-.236zm.59.333c-.01.047-.032.075-.1.127q-.003-.001-.005.005l-.036.03a.27.27 0 0 1-.24-.092 2 2 0 0 1-.096-.297c-.007-.034-.014-.056-.026-.117a2 2 0 0 0-.042-.165l.376-.008c.013.042.028.08.06.162.035.086.052.13.068.182q.03.092.04.173"/>
    <path fill="#f6d2a2"
          d="M4.607 4.22c-.24.106-.346.475-.143.672.27.261.54-.213.785-.26.275-.085.59.133.728-.187.156-.353-.272-.504-.581-.529Z"/>
    <path fill="#231f20"
          d="M5.883 4.032a1 1 0 0 0-.48-.147l-.007-.001-.006.002-.793.301c-.27.12-.367.522-.153.73.084.079.171.103.27.077a.7.7 0 0 0 .247-.143l.033-.026c.14-.108.198-.145.263-.156l.003-.001c.076-.025.146-.024.28-.015.149.011.195.014.263-.002a.3.3 0 0 0 .208-.188c.078-.18.025-.328-.128-.43m.066.4c-.038.088-.09.131-.163.152-.058.016-.1.012-.242.002a.7.7 0 0 0-.3.015c-.082.016-.143.055-.29.169q-.022.018-.034.025c-.204.158-.316.189-.436.071-.179-.173-.096-.516.133-.618L5.4 3.95c.17.015.335.064.445.138.13.085.17.201.104.345"/>
    <path d="M5.426 3.791c-.213-.337-1.011-.009-.854.426.143.315 1.063-.09.854-.426"/></svg>
